X:1
T:Tell What He’s Done for You
T:Tell What He’s Done for You
T:Andrew L. Byers, 1922
T:Lizzie DeArmond, 1922
T:PUBLIC DOMAIN
T:PUBLIC DOMAIN
C:Andrew L. Byers, 1922
Z:Lizzie DeArmond, 1922
Z:PUBLIC DOMAIN
%%score ( 1 2 ) ( 3 4 )
L:1/8
Q:1/4=120
M:4/4
K:F
V:1 treble nm="Treble"
V:2 treble 
V:3 bass nm="Bass"
V:4 bass 
V:1
 C2 | [CF]2 [FA]2 [FA]2 (GF) | [CE]2 [EG]2 [EG]2 C2 | [EG]2 [GB]2 [GB]2 (AG) | [CF]2 [FA]2 [FA]2 | %5
w: 1.~Have|you found rest and *|peace with- in, Rolled|far a- way your *|load of sin,|
w: 2.~Have|you a Friend whose *|won- drous grace Lights|up with joy the *|dark- est place,|
w: 3.~Have|you been saved, His *|love to show, Who|by your side each *|day doth go?|
w: 4.~Have|you a joy that *|ne’er shall fail E’en|when you walk through *|death’s dark vale,|
 C2 | [CF]2 [FA]2 [FA]2 (GF) | [CE]2 [EG]2 [EG]2 (([EG][FA])) | %8
w: Stepped|from the old life *|to the new? Tell *|
w: Who|to the end will *|still prove true? Tell *|
w: Look-|ing to Him to *|help you through, Tell *|
w: Some-|one whose pow’r great *|things can do? Tell *|
 [GB]2 [GB]2 (([Ac] [GB])) (([FA] [EG])) | [CF]2 [CE]2 [CF]2 ||"^Refrain" (([FA] [GB])) | %11
w: what the Lord * has *|done for you.|Oh, *|
w: what the Lord * has *|done for you.||
w: what the Lord * has *|done for you.||
w: what the Lord * has *|done for you.||
 [Ac]4 (([Ac] [GB])) [FA] [GB] | [Ac]2 [Bd]2 [Ac]2 [EG][FA] | [GB]4 (([GB] [FA])) (([EG] [FA])) | %14
w: tell _ _ what He’s|done for you, Of His|love _ _ so *|
w: |||
w: |||
w: |||
 [GB]2 [Ec]2 [FA]2 | C2 | [CF]2 [CF][CF] [EG]2 F[EG] | [FA]2 [Fc]2 [FB]4 | %18
w: strong and true;|Oh,|tell what He’s done, what He’s|done for you,|
w: ||||
w: ||||
w: ||||
 [FA] [FA]2 [CF] (E F) [CG]2 | [CF]6 |] %20
w: Oth- ers may need * Him,|too.|
w: ||
w: ||
w: ||
V:2
 C2 | z4 z2 C2 | z4 z2 C2 | z4 z2 C2 | x6 | C2 | z4 z2 C2 | x8 | x8 | x6 || x2 | x8 | x8 | x8 | %14
 x6 | C2 | z4 z2 F z | x8 | z4 C2 z2 | x6 |] %20
V:3
 [F,A,]2 | [F,C]2 [F,C]2 [F,C]2 (B,A,) | [C,G,]2 [C,B,]2 [C,B,]2 [C,C]2 | %3
w: |||
 [C,C]2 [C,C]2 [C,C]2 (CB,) | [F,A,]2 [F,C]2 [F,C]2 | [F,A,]2 | [F,A,]2 [F,C]2 [F,C]2 (B,A,) | %7
w: ||||
 [C,G,]2 [C,B,]2 [C,B,]2 [C,C]2 | [C,C]2 [C,C]2 [C,C]2 (CB,) | [C,A,]2 [C,G,]2 [F,A,]2 || z2 | %11
w: ||||
 [F,C]2 [F,C][F,C] [F,C]2 [F,C][F,C] | [F,C]2 [F,F]2 [F,F]2 z2 | [C,E]2 [C,E][C,E] [C,C]2 [C,C]2 | %14
w: Tell what He’s done, * *||Tell of His love, *|
 [C,C]2 [C,C]2 [F,C]2 | [F,A,]2 | [F,A,]2 [F,A,][F,A,] [C,B,]2 [C,A,][C,B,] | %17
w: |||
 [F,C]2 [A,,_E]2 [B,,D]4 | [C,C] [C,C]2 [C,A,] (G, A,) [C,B,]2 | [F,,F,A,]6 |] %20
w: |||
V:4
 x2 | z4 z2 F,2 | x8 | z4 z2 C,2 | x6 | x2 | z4 z2 F,2 | x8 | z4 z2 C,2 | x6 || x2 | x8 | x8 | x8 | %14
 x6 | x2 | x8 | x8 | z4 C,2 z2 | x6 |] %20

